trafik_levhalari/bilgi/42.svg

<svg viewBox="0 0 165.96 168.37" xmlns="http://www.w3.org/2000/svg"><defs><style>.cls-1{fill:#00408c;fill-rule:evenodd;}.cls-2{fill:#fff;}</style></defs><g data-name="Layer 2"><g data-name="Layer 1"><g data-name="Layer 2"><g data-name="Layer 1-2"><g data-name="Layer 1-2-2"><path class="cls-1" d="M10.83,0h144.3A10.81,10.81,0,0,1,166,10.78V157.54a10.83,10.83,0,0,1-10.79,10.83H10.83A10.8,10.8,0,0,1,0,157.59H0V10.83A10.8,10.8,0,0,1,10.78,0h.05Z"/><path class="cls-2" d="m9.82 165.18a7.56 7.56 0 0 1-6.5-6.56c-0.07-0.71-0.07-147.93 0-148.64a7.52 7.52 0 0 1 1.73-3.98 7.7 7.7 0 0 1 4.25-2.52c0.44-0.11 3.28-0.11 73.51-0.13h73.31a7.54 7.54 0 0 1 6.64 6.65c0.09 0.72 0.09 147.93 0 148.64a7.53 7.53 0 0 1-6.58 6.57c-0.64 0.08-145.75 0.08-146.37 0zm146.67-2.55a5.21 5.21 0 0 0 3.72-3.75l0.13-0.54v-148.1l-0.13-0.54a5.11 5.11 0 0 0-3.73-3.7l-0.56-0.15h-72.68c-69.06 0-73 0-73.47 0.11a5.07 5.07 0 0 0-2.53 1.34 5.15 5.15 0 0 0-1.38 2.47c-0.1 0.38-0.11 4.72-0.12 74.07v74.26a4.74 4.74 0 0 0 0.55 1.9 5.05 5.05 0 0 0 4 2.78h73.21 72.5z"/></g><rect class="cls-2" x="27.1" y="28.3" width="111.76" height="111.76"/></g></g><path d="M40.36,125.52H51c0-.08.05-.15.07-.21.45-1.9.91-3.8,1.36-5.7l.21-.87s0-.07,0-.12l-.13,0H40.8a1.13,1.13,0,0,1-.32,0,.45.45,0,0,1,0-.08q0-1.94,0-3.87s0,0,0-.07l.07,0h8.18c.07.07.05.14.05.21v1.55a.48.48,0,0,0,0,.26l.13,0c.8,0,4,0,4.24,0l0,0s0,0,0,0c.52-2.13,1-4.27,1.55-6.4a.28.28,0,0,0,0-.09,0,0,0,0,0,0,0c0-.05-.08,0-.13-.05H49.47a.83.83,0,0,1-.31,0,.78.78,0,0,1,0-.16v-4s0-.09,0-.15l.14,0h24.9a.3.3,0,0,1,0,.22v4.14l-.14,0a1.92,1.92,0,0,1-.24,0H68.61a.79.79,0,0,0,0,.17c.37,1.56.75,3.11,1.12,4.67.12.49.23,1,.35,1.46,0,.09.05.18.07.28l.16,0h4a.9.9,0,0,0,.28,0,1.36,1.36,0,0,0,0-.4c0-.13,0-.26,0-.4V115a2.75,2.75,0,0,1,0-.4l.14,0h8.09s0,0,0,0v0c0,1.27,0,2.54,0,3.8,0,0,0,.08,0,.12a.39.39,0,0,1,0,.06H71a.7.7,0,0,0-.29,0s0,0,0,0v0q.79,3.36,1.61,6.73s0,0,0,.1H99a1.31,1.31,0,0,0,0-.15,1.47,1.47,0,0,0,0-.21V94.4c-.08-.07-.13,0-.19,0-.53.2-1.06.4-1.59.62-1.13.47-2.3.85-3.45,1.27-1.52.54-3,1-4.58,1.51-.48.15-1,.27-1.45.41s-1,.32-1.57.46-1.31.36-2,.52c-1.69.42-3.39.82-5.09,1.17-.85.17-1.71.32-2.56.48-.31.06-.61.13-.92.18L74,101.3l-1.37.22-1.25.16-1.37.17L69,102a.51.51,0,0,1,.22-.09c.45-.11.9-.21,1.34-.34.64-.19,1.27-.39,1.9-.61s1.44-.52,2.16-.79c.22-.08.44-.2.66-.29l.84-.37c.48-.19.95-.43,1.42-.67.86-.46,1.73-.9,2.57-1.4l.38-.24c.37-.24.74-.49,1.12-.72a29.7,29.7,0,0,0,2.5-1.78l.58-.44c.34-.27.69-.54,1-.84s.92-.8,1.37-1.21c.74-.68,1.44-1.39,2.11-2.14l.14-.15A19.77,19.77,0,0,0,91,88c.49-.62,1-1.25,1.44-1.88l.06-.09c0-.06-.07,0-.11,0l-1.71.29-2,.36-2.82.5-2.44.44L80,88.19l-3.19.64L75,89.18l-.14,0,.18-.13,1.81-1,.49-.28L78.52,87c.5-.32,1-.65,1.48-1s.86-.59,1.29-.89c.14-.09.28-.2.42-.3.57-.44,1.16-.88,1.72-1.33s1.06-.88,1.6-1.32,1.13-1,1.71-1.52c.75-.64,1.43-1.34,2.13-2l.32-.31,1-1.14.3-.32c.62-.63,1.15-1.32,1.73-2,1-1.18,1.93-2.44,2.85-3.7.69-.94,1.31-1.94,2-2.91.46-.7.87-1.43,1.3-2.15.57-1,1.07-2,1.59-2.95a.61.61,0,0,0,0-.12s-.08,0-.11,0l-.64.48A15.83,15.83,0,0,1,96.8,65c-.26.13-.53.23-.79.35a13,13,0,0,1-2.12.74c-.64.18-1.29.32-1.94.45-.27,0-.54.07-.81.1l-.54,0s0-.07.06-.09l1.21-1,.25-.22c.39-.34.8-.68,1.18-1A32.36,32.36,0,0,0,95.7,62c.5-.56,1-1.11,1.43-1.71l.09-.11a12.55,12.55,0,0,0,.9-1.17c.62-.85,1.18-1.73,1.72-2.63a35.1,35.1,0,0,0,2.27-4.5,39.35,39.35,0,0,0,1.39-4c.23-.8.42-1.6.6-2.41.11-.47.17-.94.25-1.41.05-.27.11-.54.15-.81s.06-.35.08-.53c0-.5.12-1,.16-1.49s.06-.84.09-1.26c0-.23,0-.46,0-.68a4,4,0,0,1,.86-.16.51.51,0,0,1,.06.25L106,41.2c0,.29.1.59.15.88s.11.65.18,1,.17.73.25,1.09c.2,1,.49,1.93.73,2.89.16.61.38,1.19.58,1.78,0,.1.08.19.1.29.15.57.4,1.1.6,1.65.28.8.65,1.56,1,2.33.16.37.33.73.5,1.09.52,1.1,1.14,2.14,1.71,3.21a1,1,0,0,0,.08.14c.36.51.66,1,1,1.57.18.29.37.57.57.85s.26.35.38.54c.28.45.63.85,1,1.28l.19.26.35.45a.54.54,0,0,1,.14.27h-.14a20.55,20.55,0,0,1-2-.43c-.4-.12-.8-.26-1.19-.42A18.64,18.64,0,0,1,110.2,61a8.7,8.7,0,0,1-.9-.59l-.21-.13c-.07,0,0,.08,0,.12,0,.41.07.83.11,1.24.08.75.23,1.5.34,2.25s.3,1.52.47,2.27A34.67,34.67,0,0,0,111,69.89c.2.6.43,1.19.66,1.78.09.22.16.44.25.66a1.8,1.8,0,0,0,.08.21c.26.58.52,1.16.79,1.73.19.4.4.78.6,1.17.42.86.92,1.67,1.4,2.49.2.34.44.65.65,1,.59.93,1.26,1.81,1.92,2.69.22.29.47.56.71.84.62.76,1.29,1.48,2,2.19.28.31.59.59.88.88l.54.51c0,.07-.07,0-.1,0l-.6-.09-1.39-.23-1.06-.2c-.5-.1-1-.19-1.51-.31-1.4-.32-2.79-.65-4.15-1.07l-.46-.12-.06,0c-.06,0,0,.09,0,.13.39,1,.81,2,1.26,2.95.37.81.73,1.61,1.12,2.4s.76,1.53,1.14,2.29l.11.2L117,94.24c.32.55.66,1.09,1,1.64.65,1.11,1.39,2.16,2.1,3.23.4.6.85,1.18,1.27,1.77.64.88,1.33,1.73,2,2.6.47.62,1,1.19,1.49,1.78.19.22.38.43.55.66,0,.07-.09,0-.12,0-1.21-.38-2.42-.75-3.61-1.18-.8-.3-1.59-.61-2.37-1-1.11-.51-2.21-1-3.3-1.63-.94-.5-1.86-1-2.78-1.6-.36-.22-.7-.47-1.06-.7-1.27-.82-2.46-1.74-3.64-2.68-.84-.68-1.63-1.41-2.42-2.14-.48-.45-.92-.92-1.38-1.38a.55.55,0,0,0-.19-.14.25.25,0,0,0,0,.07c0,.34,0,31.72,0,31.89l.12,0h21v1.12H40.36Zm14.46-6.92c0,.1,0,.17-.06.25l-1.11,5c-.11.48-.21,1-.32,1.46a.22.22,0,0,0,0,.22H69.91l.14,0s0,0,0-.07l-1.47-6.69s0-.08,0-.14Zm13.25-2v-.09L66.61,110l0,0s0,0,0,0H56.83s0,0,0,0l0,0s0,.09,0,.14l-.63,2.79c-.27,1.16-.53,2.33-.8,3.49a.71.71,0,0,1,0,.14l.11,0H68Z"/></g></g></svg>

<svg xmlns="http://www.w3.org/2000/svg" viewBox="0 0 165.96 168.37"><defs><style>.cls-1{fill:#00408c;fill-rule:evenodd;}.cls-2{fill:#fff;}</style></defs><g id="Layer_2" data-name="Layer 2"><g id="Layer_1-2" data-name="Layer 1"><g id="Layer_2-2" data-name="Layer 2"><g id="Layer_1-2-2" data-name="Layer 1-2"><g id="Layer_1-2-2-2" data-name="Layer 1-2-2"><g id="g8435"><path id="rect9000" class="cls-1" d="M10.83,0h144.3A10.81,10.81,0,0,1,166,10.78V157.54a10.83,10.83,0,0,1-10.79,10.83H10.83A10.8,10.8,0,0,1,0,157.59H0V10.83A10.8,10.8,0,0,1,10.78,0h.05Z"/><path id="path9038" class="cls-2" d="M9.82,165.18a7.56,7.56,0,0,1-6.5-6.56c-.07-.71-.07-147.93,0-148.64A7.52,7.52,0,0,1,5.05,6,7.7,7.7,0,0,1,9.3,3.48c.44-.11,3.28-.11,73.51-.13,52,0,72.91,0,73.31,0A7.54,7.54,0,0,1,162.76,10c.09.72.09,147.93,0,148.64a7.53,7.53,0,0,1-6.58,6.57c-.64.08-145.75.08-146.37,0Zm146.67-2.55a5.21,5.21,0,0,0,3.72-3.75l.13-.54V10.24l-.13-.54A5.11,5.11,0,0,0,156.48,6l-.56-.15H83.24c-69.06,0-73,0-73.47.11A5.07,5.07,0,0,0,7.24,7.3,5.15,5.15,0,0,0,5.86,9.77c-.1.38-.11,4.72-.12,74.07,0,48.79,0,73.86,0,74.26A4.74,4.74,0,0,0,6.29,160a5.05,5.05,0,0,0,4,2.78c.21,0,33.16,0,73.21,0H156Z"/></g></g><rect class="cls-2" x="27.1" y="28.3" width="111.76" height="111.76"/></g></g><path d="M40.36,125.52H51c0-.08.05-.15.07-.21.45-1.9.91-3.8,1.36-5.7l.21-.87s0-.07,0-.12l-.13,0H40.8a1.13,1.13,0,0,1-.32,0,.45.45,0,0,1,0-.08q0-1.94,0-3.87s0,0,0-.07l.07,0h8.18c.07.07.05.14.05.21v1.55a.48.48,0,0,0,0,.26l.13,0c.8,0,4,0,4.24,0l0,0s0,0,0,0c.52-2.13,1-4.27,1.55-6.4a.28.28,0,0,0,0-.09,0,0,0,0,0,0,0c0-.05-.08,0-.13-.05H49.47a.83.83,0,0,1-.31,0,.78.78,0,0,1,0-.16v-4s0-.09,0-.15l.14,0h24.9a.3.3,0,0,1,0,.22v4.14l-.14,0a1.92,1.92,0,0,1-.24,0H68.61a.79.79,0,0,0,0,.17c.37,1.56.75,3.11,1.12,4.67.12.49.23,1,.35,1.46,0,.09.05.18.07.28l.16,0h4a.9.9,0,0,0,.28,0,1.36,1.36,0,0,0,0-.4c0-.13,0-.26,0-.4V115a2.75,2.75,0,0,1,0-.4l.14,0h8.09s0,0,0,0v0c0,1.27,0,2.54,0,3.8,0,0,0,.08,0,.12a.39.39,0,0,1,0,.06H71a.7.7,0,0,0-.29,0s0,0,0,0v0q.79,3.36,1.61,6.73s0,0,0,.1H99a1.31,1.31,0,0,0,0-.15,1.47,1.47,0,0,0,0-.21V94.4c-.08-.07-.13,0-.19,0-.53.2-1.06.4-1.59.62-1.13.47-2.3.85-3.45,1.27-1.52.54-3,1-4.58,1.51-.48.15-1,.27-1.45.41s-1,.32-1.57.46-1.31.36-2,.52c-1.69.42-3.39.82-5.09,1.17-.85.17-1.71.32-2.56.48-.31.06-.61.13-.92.18L74,101.3l-1.37.22-1.25.16-1.37.17L69,102a.51.51,0,0,1,.22-.09c.45-.11.9-.21,1.34-.34.64-.19,1.27-.39,1.9-.61s1.44-.52,2.16-.79c.22-.08.44-.2.66-.29l.84-.37c.48-.19.95-.43,1.42-.67.86-.46,1.73-.9,2.57-1.4l.38-.24c.37-.24.74-.49,1.12-.72a29.7,29.7,0,0,0,2.5-1.78l.58-.44c.34-.27.69-.54,1-.84s.92-.8,1.37-1.21c.74-.68,1.44-1.39,2.11-2.14l.14-.15A19.77,19.77,0,0,0,91,88c.49-.62,1-1.25,1.44-1.88l.06-.09c0-.06-.07,0-.11,0l-1.71.29-2,.36-2.82.5-2.44.44L80,88.19l-3.19.64L75,89.18l-.14,0,.18-.13,1.81-1,.49-.28L78.52,87c.5-.32,1-.65,1.48-1s.86-.59,1.29-.89c.14-.09.28-.2.42-.3.57-.44,1.16-.88,1.72-1.33s1.06-.88,1.6-1.32,1.13-1,1.71-1.52c.75-.64,1.43-1.34,2.13-2l.32-.31,1-1.14.3-.32c.62-.63,1.15-1.32,1.73-2,1-1.18,1.93-2.44,2.85-3.7.69-.94,1.31-1.94,2-2.91.46-.7.87-1.43,1.3-2.15.57-1,1.07-2,1.59-2.95a.61.61,0,0,0,0-.12s-.08,0-.11,0l-.64.48A15.83,15.83,0,0,1,96.8,65c-.26.13-.53.23-.79.35a13,13,0,0,1-2.12.74c-.64.18-1.29.32-1.94.45-.27,0-.54.07-.81.1l-.54,0s0-.07.06-.09l1.21-1,.25-.22c.39-.34.8-.68,1.18-1A32.36,32.36,0,0,0,95.7,62c.5-.56,1-1.11,1.43-1.71l.09-.11a12.55,12.55,0,0,0,.9-1.17c.62-.85,1.18-1.73,1.72-2.63a35.1,35.1,0,0,0,2.27-4.5,39.35,39.35,0,0,0,1.39-4c.23-.8.42-1.6.6-2.41.11-.47.17-.94.25-1.41.05-.27.11-.54.15-.81s.06-.35.08-.53c0-.5.12-1,.16-1.49s.06-.84.09-1.26c0-.23,0-.46,0-.68a4,4,0,0,1,.86-.16.51.51,0,0,1,.06.25L106,41.2c0,.29.1.59.15.88s.11.65.18,1,.17.73.25,1.09c.2,1,.49,1.93.73,2.89.16.61.38,1.19.58,1.78,0,.1.08.19.1.29.15.57.4,1.1.6,1.65.28.8.65,1.56,1,2.33.16.37.33.73.5,1.09.52,1.1,1.14,2.14,1.71,3.21a1,1,0,0,0,.08.14c.36.51.66,1,1,1.57.18.29.37.57.57.85s.26.35.38.54c.28.45.63.85,1,1.28l.19.26.35.45a.54.54,0,0,1,.14.27h-.14a20.55,20.55,0,0,1-2-.43c-.4-.12-.8-.26-1.19-.42A18.64,18.64,0,0,1,110.2,61a8.7,8.7,0,0,1-.9-.59l-.21-.13c-.07,0,0,.08,0,.12,0,.41.07.83.11,1.24.08.75.23,1.5.34,2.25s.3,1.52.47,2.27A34.67,34.67,0,0,0,111,69.89c.2.6.43,1.19.66,1.78.09.22.16.44.25.66a1.8,1.8,0,0,0,.08.21c.26.58.52,1.16.79,1.73.19.4.4.78.6,1.17.42.86.92,1.67,1.4,2.49.2.34.44.65.65,1,.59.93,1.26,1.81,1.92,2.69.22.29.47.56.71.84.62.76,1.29,1.48,2,2.19.28.31.59.59.88.88l.54.51c0,.07-.07,0-.1,0l-.6-.09-1.39-.23-1.06-.2c-.5-.1-1-.19-1.51-.31-1.4-.32-2.79-.65-4.15-1.07l-.46-.12-.06,0c-.06,0,0,.09,0,.13.39,1,.81,2,1.26,2.95.37.81.73,1.61,1.12,2.4s.76,1.53,1.14,2.29l.11.2L117,94.24c.32.55.66,1.09,1,1.64.65,1.11,1.39,2.16,2.1,3.23.4.6.85,1.18,1.27,1.77.64.88,1.33,1.73,2,2.6.47.62,1,1.19,1.49,1.78.19.22.38.43.55.66,0,.07-.09,0-.12,0-1.21-.38-2.42-.75-3.61-1.18-.8-.3-1.59-.61-2.37-1-1.11-.51-2.21-1-3.3-1.63-.94-.5-1.86-1-2.78-1.6-.36-.22-.7-.47-1.06-.7-1.27-.82-2.46-1.74-3.64-2.68-.84-.68-1.63-1.41-2.42-2.14-.48-.45-.92-.92-1.38-1.38a.55.55,0,0,0-.19-.14.25.25,0,0,0,0,.07c0,.34,0,31.72,0,31.89l.12,0h21v1.12H40.36Zm14.46-6.92c0,.1,0,.17-.06.25l-1.11,5c-.11.48-.21,1-.32,1.46a.22.22,0,0,0,0,.22H69.91l.14,0s0,0,0-.07l-1.47-6.69s0-.08,0-.14Zm13.25-2v-.09L66.61,110l0,0s0,0,0,0H56.83s0,0,0,0l0,0s0,.09,0,.14l-.63,2.79c-.27,1.16-.53,2.33-.8,3.49a.71.71,0,0,1,0,.14l.11,0H68Z"/></g></g></svg>
